X: 61
T:The Humours of Ballinahulla
R:Jig
S:Paddy Cronin, Kerry (fiddle)
D:Session tape
N:As played
Z:Bernie Stocks
M:6/8
K:G
~B3 BGD | GBd edB | ABA DFA | DFA {c}BAG | ~B3 BGD | GBd edB |
ABA DFA | AGF G2B | dBB {d}BGD | GBd edB | ABA DFA | DFA {d}BAG |
dBB {d}BGD | GBd edB | ABA DFA | AGF G3 || ~f3 def | ~g3 efg |
fAA A^GA | BA^G A2e | ~f3 def | ~g3 eag | fed ^cBA |1 dfe d2e :|2 dfe d2c ||
<end>
<start>
